!!!!SEGMENT: pl-kc--40102-iii-1-saf--001-024_zielenski-mikolaj--offertoria-totius-anni-feria-tertia-pentecostes-portas-caeli.krn
!!!cenid: 16xx:1502
!!!COM: Zieleński, Mikołaj
!!!COM-rismID: pe30013481
!!!CDT: <1611->1611
!!!CNT: Polish
!!!GTL: Offertoria totius anni
!!!OTL: Feria tertia Pentecostes/Portas caeli
!!!OMV: 024
!!!PDT: 1611
!!!AGN: Sacred
!!!YEC: Copyright 2022 Narodowy Instytut Fryderyka Chopina (https://polishscores.org)
!!!YEM: License CC-BY-4.0 (https://creativecommons.org/licenses/by/4.0)
!!!SMS-siglum: PL-Kc
!!!SMS-shelfmark: 40102 III/1 Saf.
!!!SMS-shelfwork: 001-024 G
!!!SMS-variant:
!!!SMS-altvar:
!!!NIFC-rismSourceID: 990069886
!!!NIFC-rismChildID: 990069886
!!!NIFC-islandoraID: none
!!!URL-pdf-islandora:
!!!URL-scan: https://cyfrowe.mnk.pl/dlibra/publication/24235/edition/23926/content?ref=desc @EN{Scan on The National Museum in Krakow Website} @PL{Skany w portalu Biblioteka Cyfrowa Muzeum Narodowego w Krakowie}
!!!IIIF:
!!!ONB-nifc: UWAGA: str. 22-23. Uwaga: W xml metrum 2/1 do źródłowego C| i odpowiednio 3/1 do 3/2
!!!AIN: 4 organ
!!!key:
**kern	**kern	**kern	**kern
*group1	*group1	*group1	*group1
*part4	*part3	*part2	*part1
*staff4	*staff3	*staff2	*staff1
*I""Organo	*I""Organo	*I""Organo	*I""Organo
*I''org	*I''org	*I''org	*I''org
*Iorgan	*Iorgan	*Iorgan	*Iorgan
*ICklav	*ICklav	*ICklav	*ICklav
*clefF5	*clefC3	*clefC4	*clefG2
*k[]	*k[]	*k[]	*k[]
*C:	*C:	*C:	*C:
*M2/1	*M2/1	*M2/1	*M2/1
*met(C|)	*met(C|)	*met(C|)	*met(C|)
=1	=1	=1	=1
!	!	!LO:TX:a:t=Portas caeli.	!LO:TX:a:t=Feria tertia Pentecoſtes. A 8.
00r	00r	1C	2r
.	.	.	2cc\
.	.	0G	2b/
.	.	.	2cc\
=2-	=2-	=2-	=2-
.	.	.	2dd\
.	.	.	4r
.	.	.	4cc\
.	.	1G	2b/
.	.	.	2cc\
=3	=3	=3	=3
00r	00r	2.G/	2.dd\
.	.	2D/	2ff\
.	.	4.F/	4.cc\
.	.	8F/	8cc\
.	.	4C/	4ee\
=4-	=4-	=4-	=4-
.	.	1.D	1.dd
.	.	2D/	2dd\
=5	=5	=5	=5
1GG	2r	1G	1dd
.	2g\	.	.
0D	2f#X\	0r	0r
.	2g\	.	.
=6-	=6-	=6-	=6-
.	2a\	.	.
.	4r	.	.
.	4g\	.	.
1DD	2fny\	1D	2r
.	2f\	.	2dd\
=7	=7	=7	=7
0AA	2e\	2E/	2cc#X\
.	2a\	2F/	2dd\
.	2.a\	0A	2ee\
.	.	.	4r
.	8g\	.	4dd\
.	8f\	.	.
=8-	=8-	=8-	=8-
1AA	2e\	.	2cc#X\
.	2f\	.	2dd\
1AA	1e	2r	2ee\
.	.	2AA/	2ee\
=9	=9	=9	=9
2r	2r	2.D/	2.ff\
2DD/	2d\	.	.
.	.	4D/	4ff\
2GG/	1d	1D	2dd\
2GG/	.	.	4gg\
.	.	.	4ff\
=10-	=10-	=10-	=10-
0CC	1.e	2.C/	4ee\
.	.	.	4dd\
.	.	.	2.ee\
.	.	4D/	.
.	.	4E/	.
.	.	4F/	4dd\
.	2e\	4G/	[<2cc\
.	.	4A/	.
=11	=11	=11	=11
1.GG	1.d	4B\	2cc\]
.	.	4A\	.
.	.	4B\	4b/
.	.	4c\	4a/
.	.	2d\	2b/
2GG/	2G/	2G/	2b/
=12-	=12-	=12-	=12-
2.CC/	2.G/	1c	1cc
4C\	4g\	.	.
2D\	2f#X\	1r	2r
!	!	!	!LO:N:vis=1
2AA/	4a\	.	2r
.	[<4a\	.	.
*custos:BB	*custos:a	*custos:G	*custos:dd
!!LO:LB:g=original
=13	=13	=13	=13
2BB/	4a\]	0r	0r
.	4g\	.	.
2GG/	2.g\	.	.
1D	.	.	.
.	8f#X\	.	.
.	8e\	.	.
.	2f#\	.	.
=14-	=14-	=14-	=14-
1GG	1g	2r	2r
.	.	2G/	2dd\
1r	1r	2F/	2ff\
.	.	2A/	4cc\
.	.	.	[<4ee\
=15	=15	=15	=15
00r	00r	2G/	4ee\]
.	.	.	4dd\
.	.	2D/	2.dd\
.	.	1A	.
.	.	.	8cc#X\
.	.	.	8b\
.	.	.	2cc#\
=16-	=16-	=16-	=16-
.	.	2D/	1.dd
.	.	2D/	.
.	.	2.G/	.
.	.	.	2dd\
.	.	4F/	.
=17	=17	=17	=17
0r	0r	4E/	2.gg\
.	.	4F/	.
.	.	4E/	.
.	.	4D/	4ff\
.	.	2C/	2ee\
.	.	2C/	2ee\
=18-	=18-	=18-	=18-
2r	1r	1G	1dd
2GG/	.	.	.
2.C\	2r	1r	1r
.	2e\	.	.
4BB/	.	.	.
=19	=19	=19	=19
4AA/	2.a\	0r	0r
4GG/	.	.	.
1FF	.	.	.
.	4g\	.	.
.	2f\	.	.
2FF/	2f\	.	.
=20-	=20-	=20-	=20-
1CC	1e	2r	2r
.	.	2c\	2cc\
1r	1r	2B\	2dd\
.	.	4d\	4a/
.	.	[<4G/	[<4b/
=21	=21	=21	=21
1r	1r	4G/]	4b/]
.	.	4F/	4b/
.	.	2d\	2a/
2r	2r	2G/	2b/
!	!LO:SIC:v:s=2gn\	!	!
2GG/	2g#X\	2D/	2dd\
=22-	=22-	=22-	=22-
2DD/	2a\	2D/	2ff\
4FF/	4a\	4C/	4cc\
2CC/	2gny\	2C/	2ee\
4CC/	4g\	4C/	4ee\
2GG/	2g\	2D/	2dd\
=23	=23	=23	=23
1.CC	0g	2C/	2ee\
.	.	2C/	2cc\
.	.	2.c\	2.ee\
2CC/	.	.	.
.	.	8B\	4dd\
.	.	8A\	.
=24-	=24-	=24-	=24-
2.C\	2r	2G/	4cc\
.	.	.	4b/
.	2e\	2E/	2.cc\
4BB/	.	.	.
1AA	4A/	1E	.
.	4B/	.	4b/
.	4c/	.	[y2a/
.	4A/	.	.
=25	=25	=25	=25
!	!	!	!LO:N:xstem:cue
1EE	2e\	2.E/	4a/]
.	.	.	8g#X/
!	!	!	!LO:SIC:v:s=8f#/
.	.	.	8f/
.	2e\	.	2g#/
.	.	4E/	.
1AA	1c#X	2.E/	2a/
.	.	.	2cc#X\
.	.	4A/	.
=26-	=26-	=26-	=26-
0r	0r	2F/	2dd\
.	.	2E/	2ee\
.	.	4D/	4ff\
.	.	2G/	2dd\
.	.	4E/	4ee\
=27	=27	=27	=27
1r	1r	1D	1ff
2r	2r	1C	1ee
2C\	2e\	.	.
=28-	=28-	=28-	=28-
2AA/	2f#X\	0r	0r
2GG/	2g\	.	.
4FF/	4a\	.	.
2C\	2e\	.	.
4GG/	[>4g\	.	.
=29	=29	=29	=29
1D	4g\]	1r	1r
.	8f#X\	.	.
.	8e\	.	.
.	2f#\	.	.
1GG	1g	2r	2r
.	.	2G/	2dd\
=30-	=30-	=30-	=30-
1r	1r	2E/	2ee\
.	.	2D/	2ff#X\
2r	2r	1G	1gg
2GG/	2d\	.	.
=31	=31	=31	=31
2EE/	2e\	1r	1r
2DD/	2f\	.	.
2.CC/	2.g\	2r	2r
.	.	2C/	2gg\
4CC/	4e\	.	.
=32-	=32-	=32-	=32-
2CC/	2e\	2C/	2ee\
2GG/	2B/	2D/	2dd\
!LO:TX:b:t=Partitura Nicolai Zielenski.	!	!	!
4CC/	4e\	4E/	4cc\
2FF/	2f\	2AA/	2cc\
4DD/	4a\	4AA/	4dd\
=33	=33	=33	=33
0AA	0e	2C#X/	4ee\
.	.	.	4a/
.	.	2D/	2.dd\
.	.	1E	.
.	.	.	8cc#X\
.	.	.	8b\
.	.	.	4cc#\
.	.	.	4dd\
=34-	=34-	=34-	=34-
!	!	!	!LO:TX:t=P:problem=brak pauzy 0r
2DD/	2a\	1D	0ryy
2D\	2d\	.	.
2C\	2e\	1r	.
4BB/	4g\	.	.
[>4C\	[>4g\	.	.
=35	=35	=35	=35
4C\]	4g\]	2r	2r
4D\	4f#X\	.	.
2GG/	2g\	2G/	4r
.	.	.	4b/
1r	1r	2F/	2cc\
.	.	4E/	4ee\
.	.	2F/	2dd\
=36-	=36-	=36-	=36-
0r	0r	.	.
.	.	4G/	4dd\
.	.	2C/	2ee\
.	.	4c\	4ff\
.	.	4c\	4ee\
.	.	4A/	4cc\
.	.	4F/	4ff\
*custos:GG	*custos:d	*custos:c	*custos:ee
!!LO:PB:g=original
=37	=37	=37	=37
2r	2r	2c\	2ee\
2GG/	2d\	2G/	2dd\
2FF/	2f\	1r	1r
4EE/	4g\	.	.
2FF/	2f\	.	.
=38-	=38-	=38-	=38-
.	.	0r	0r
4GG/	4d\	.	.
2CC/	2e\	.	.
4C\	4e\	.	.
4C\	4e\	.	.
4AA/	4c/	.	.
4FF/	4f\	.	.
=39	=39	=39	=39
2C\	2e\	2r	2r
2GG/	2d\	4G/	4dd\
.	.	4G/	4dd\
2r	2r	4E/	4ee\
.	.	4C/	4ee\
4GG/	4d\	2G/	2dd\
4GG/	4d\	.	.
=40-	=40-	=40-	=40-
4EE/	4c/	2C/	2ee\
4CC/	4g\	.	.
2GG/	4.g\	4D/	4dd\
.	.	4G/	4dd\
.	8f\	.	.
2CC/	2e\	4E/	4ee\
.	.	4C/	4ee\
4GG/	4B/	2D/	2dd\
4GG/	4d\	.	.
=41	=41	=41	=41
4EE/	4g\	2G/	2ee\
4CC/	4e\	.	.
2GG/	2d\	2G/	4r
.	.	.	4dd\
2CC/	2g\	2E/	2ee\
2r	2r	4F/	4cc\
.	.	2D/	2ff\
=42-	=42-	=42-	=42-
2r	2r	.	.
.	.	4C/	4ee\
2GG/	2d\	2G/	2dd\
2EE/	2e\	1r	1r
4FF/	4c/	.	.
[>4CC/	[>4g\	.	.
=43	=43	=43	=43
4CC/]	4g\]	2r	2r
4DD/	4f\	.	.
2AA/	2e\	4A/	4ee\
.	.	4A/	4ee\
1r	1r	4F/	4ff\
.	.	4D/	4ff\
.	.	2G/	2dd\
=44-	=44-	=44-	=44-
2r	2r	2.C/	2ee\
2CC/	2e\	.	2gg\
.	.	4C/	.
2FF/	2f\	2C/	2ff\
4CC/	4g\	4C/	4ee\
[>4DD/	[>4d\	[>4F/	[>4dd\
=45	=45	=45	=45
4DD/]	4d\]	4F/]	4dd\]
4DD/	4d\	4D/	4dd\
1AA	1A	2E/	2cc#X\
.	.	4AA/	4ee\
.	.	4A/	4ee\
2r	2r	4F/	4ff\
.	.	4D/	4ff\
=46-	=46-	=46-	=46-
4GG/	4d\	2G/	2dd\
4GG/	4d\	.	.
4EE/	4g\	2G/	2ee\
4CC/	4e\	.	.
1GG	4d\	1r	1r
.	4e\	.	.
.	2d\	.	.
=47	=47	=47	=47
2CC/	2e\	2r	2r
4GG/	4B/	4G/	4dd\
4GG/	4B/	4G/	4dd\
2EE/	2.e\	2G/	2ee\
2CC/	.	2E/	1gg
.	4f\	.	.
=48-	=48-	=48-	=48-
[>0GG	1g	2.D/	.
.	.	.	4ff\
.	.	4C/	4ee\
.	1G	2BB/	4dd\
.	.	.	4g/
.	.	2C/	[y2cc\
=49	=49	=49	=49
!	!	!	!LO:N:xstem:cue
1GG]	2.g\	1D	4cc\]
.	.	.	8b/
.	.	.	8a/
.	.	.	2b/
.	4f\	.	.
2CC/	2.e\	1C	1cc
2C\	.	.	.
.	4e\	.	.
=50-	=50-	=50-	=50-
2BB/	4g\	0r	0r
.	8d\	.	.
.	8e\	.	.
2AA/	4f\	.	.
.	4c/	.	.
2GG/	4e\	.	.
.	8B/	.	.
.	8c/	.	.
2FF/	4d\	.	.
.	8A/	.	.
.	8B/	.	.
=51	=51	=51	=51
2.EE/	4c/	0r	0r
.	4B/	.	.
.	2.g\	.	.
4DD/	.	.	.
2CC/	.	.	.
.	4f\	.	.
2CC/	2e\	.	.
=52-	=52-	=52-	=52-
1GG	1d	2r	2r
.	.	2G/	4r
.	.	.	4dd\
1r	1r	2F/	4ff\
.	.	.	8cc\
.	.	.	8dd\
.	.	2E/	4ee\
.	.	.	4b/
=53	=53	=53	=53
0r	0r	2D/	4dd\
.	.	.	8a/
.	.	.	8b/
.	.	2C/	4cc\
.	.	.	8g/
.	.	.	8a/
.	.	[<1G	4b/
.	.	.	4g/
.	.	.	[<2cc\
=54-	=54-	=54-	=54-
1r	1r	2G/]	4cc\]
.	.	.	8b/
.	.	.	8a/
.	.	2G/	2b/
2r	2r	2.C/	2cc\
4r	2g\	.	2gg\
4CC/	.	4C/	.
=55	=55	=55	=55
4FF/	4c/	4C/	2ff\
4DD/	4f\	4D/	.
4AA/	2c/	2E/	2ee\
8EE/	.	.	.
8FF/	.	.	.
4GG/	2r	2r	2dd\
8DD/	.	.	.
8EE/	.	.	.
4FF/	1c	2C/	2cc\
8FF/	.	.	.
8GG/	.	.	.
=56-	=56-	=56-	=56-
4AA/	.	2.C/	4r
8AA/	.	.	8cc\
8BB/	.	.	8dd\
4C\	2c/	.	4ee\
4CC/	.	4C/	8dd\
.	.	.	8cc\
1GG	(<1G	[<1D	4b/
.	.	.	8g/
.	.	.	8a/
.	.	.	4b/
.	.	.	8b\
.	.	.	8cc\
*custos:DD	*custos:d	*custos:D	*custos:dd
!!LO:LB:g=original
=57	=57	=57	=57
1DD	1d)	1D]	4dd\
.	.	.	8dd\
.	.	.	8ee\
.	.	.	4ff\
.	.	.	8ee\
.	.	.	8dd\
2.AA/	1c	2r	4ee\
.	.	.	8cc\
.	.	.	8dd\
.	.	2E/	4ee\
4C\	.	.	8dd\
.	.	.	8cc\
=58-	=58-	=58-	=58-
[>0GG	1.g	1D	4b/
.	.	.	8g/
.	.	.	8a/
.	.	.	4b/
.	.	.	8b\
.	.	.	8cc\
.	.	2r	4dd\
.	.	.	4g/
.	2G/	2C/	[y2cc\
=59	=59	=59	=59
!	!	!	!LO:N:xstem:cue
1GG]	1d	1D	4cc\]
.	.	.	8b/
.	.	.	8a/
.	.	.	2b/
2CC/	2g\	2C/	1.cc
4C\	4e\	1C	.
4BB/	4d\	.	.
=60-	=60-	=60-	=60-
4AA/	4c/	.	.
4GG/	4B/	.	.
1FF	1c	2C/	4a/
.	.	.	4b/
.	.	[>1C	4cc\
.	.	.	4dd\
2EE/	2c/	.	2ee\
=61	=61	=61	=61
*	*lig	*	*
0FF	1F	0C]	2cc\
.	.	.	2.ff\
.	1f	.	.
.	.	.	8ee\
.	.	.	8dd\
.	.	.	4cc\
.	.	.	4dd\
*	*Xlig	*	*
=62-	=62-	=62-	=62-
0CCl	0el	0Cl	0eel
==	==	==	==
*-	*-	*-	*-
!!!system-decoration: *
!!!RDF**kern: > = above
!!!RDF**kern: < = below
!!!RDF**kern: l = terminal long
!!!ENC: Filip Voros
!!!END: 2021-12-13
!!!ENC: Andrzej Kubiczek
!!!END: 2021-12-20
